X: 34508
T: Rights Of Man, The
R: hornpipe
M: 4/4
K: Eminor
|:G>A|(3BcB (3ABA G>GF>G|E>FG>A B2 e>f|g>fe>d B>dg>f|(3efe (3dcB A2 G>A|
(3BcB (3ABA G>AF>G|E>FG>A B2 e>f|g>fe>d B>dg>f|e2 E2 E2:|
|:g>a|b>gb>g e>fg>a|b>gb>g e>gf>e|d>cd>e d>ef>g|a>fa>b a2 g>f|
e>ee>g f>df>a|g>fe>d B2 e>f|g>fe>d B>dg>f|e2 E2 E2:|

